assets/img/braze_icons/pie-chart-02.svg

<svg fill="none" height="24" viewBox="0 0 24 24" width="24" xmlns="http://www.w3.org/2000/svg"><g clip-rule="evenodd" fill="#801ed7" fill-rule="evenodd"><path d="m9.14895 5.0397c.1803-.02068.5669-.06504.93685.09193.3043.12907.5709.37029.7297.6601.1207.22032.158.43225.1726.59069.012.13072.012.27699.0119.39369v.02388 4.60001c0 .56 0 .8401.109 1.054.0959.1881.2489.3411.437.437.2139.109.494.109 1.054.109h4.6.0239c.1167-.0001.263-.0002.3937.0119.1584.0146.3704.0519.5907.1726.2898.1588.531.4254.6601.7297.1569.37.1126.7566.0919.9369-.0021.0179-.0039.0338-.0053.0474-.1467 1.4626-.6501 2.8719-1.4718 4.1016-.9889 1.4801-2.3945 2.6336-4.039 3.3148-1.6446.6812-3.45418.8594-5.20001.5122-1.74583-.3473-3.34947-1.2045-4.60815-2.4631-1.25867-1.2587-2.11584-2.8624-2.4631-4.6082-.34727-1.7458-.16904-3.5554.51215-5.2.68119-1.64449 1.83474-3.0501 3.31478-4.03903 1.22977-.82171 2.63905-1.32507 4.10161-1.47182.01363-.00136.02953-.00319.04747-.00525z"/><path d="m14.851 1.03968c.018.00206.0339.00388.0475.00525 2.057.20633 3.9907 1.11638 5.4655 2.5911 1.4747 1.47472 2.3847 3.40849 2.5911 5.46546.0013.01364.0032.02954.0052.04748.0207.18031.065.5669-.0919.93693-.1291.3042-.3703.5708-.6601.7296-.2203.1207-.4323.1579-.5907.1726-.1307.012-.277.012-.3937.0119-.0081 0-.0161 0-.0239 0h-6.4c-.0076 0-.0153 0-.0231 0-.1191 0-.2614.0001-.3867-.0101-.1452-.0119-.3532-.0423-.5712-.1534-.2822-.1438-.5117-.3733-.6555-.6555-.1111-.21797-.1415-.42596-.1534-.57117-.0102-.12532-.0101-.26758-.0101-.3867 0-.00781 0-.01553 0-.02314v-6.4c0-.0078 0-.01577 0-.02388-.0001-.11671-.0001-.26297.0119-.3937.0147-.15843.0519-.37036.1726-.59068.1588-.28981.4254-.53103.7296-.6601.37-.156976.7566-.11263.9369-.09195z"/></g></svg>

<svg width="24" height="24" viewBox="0 0 24 24" fill="none" xmlns="http://www.w3.org/2000/svg">
<path fill-rule="evenodd" clip-rule="evenodd" d="M9.14895 5.0397C9.32925 5.01902 9.71585 4.97466 10.0858 5.13163C10.3901 5.2607 10.6567 5.50192 10.8155 5.79173C10.9362 6.01205 10.9735 6.22398 10.9881 6.38242C11.0001 6.51314 11.0001 6.65941 11 6.77611C11 6.78422 11 6.79219 11 6.79999V11.4C11 11.96 11 12.2401 11.109 12.454C11.2049 12.6421 11.3579 12.7951 11.546 12.891C11.7599 13 12.04 13 12.6 13H17.2C17.2078 13 17.2158 13 17.2239 13C17.3406 12.9999 17.4869 12.9998 17.6176 13.0119C17.776 13.0265 17.988 13.0638 18.2083 13.1845C18.4981 13.3433 18.7393 13.6099 18.8684 13.9142C19.0253 14.2842 18.981 14.6708 18.9603 14.8511C18.9582 14.869 18.9564 14.8849 18.955 14.8985C18.8083 16.3611 18.3049 17.7704 17.4832 19.0001C16.4943 20.4802 15.0887 21.6337 13.4442 22.3149C11.7996 22.9961 9.99002 23.1743 8.24419 22.8271C6.49836 22.4798 4.89472 21.6226 3.63604 20.364C2.37737 19.1053 1.5202 17.5016 1.17294 15.7558C0.82567 14.01 1.0039 12.2004 1.68509 10.5558C2.36628 8.91131 3.51983 7.5057 4.99987 6.51677C6.22964 5.69506 7.63892 5.1917 9.10148 5.04495C9.11511 5.04359 9.13101 5.04176 9.14895 5.0397Z" fill="#801ED7"/>
<path fill-rule="evenodd" clip-rule="evenodd" d="M14.851 1.03968C14.869 1.04174 14.8849 1.04356 14.8985 1.04493C16.9555 1.25126 18.8892 2.16131 20.364 3.63603C21.8387 5.11075 22.7487 7.04452 22.9551 9.10149C22.9564 9.11513 22.9583 9.13103 22.9603 9.14897C22.981 9.32928 23.0253 9.71587 22.8684 10.0859C22.7393 10.3901 22.4981 10.6567 22.2083 10.8155C21.988 10.9362 21.776 10.9734 21.6176 10.9881C21.4869 11.0001 21.3406 11.0001 21.2239 11C21.2158 11 21.2078 11 21.2 11L14.8 11C14.7924 11 14.7847 11 14.7769 11C14.6578 11 14.5155 11.0001 14.3902 10.9899C14.245 10.978 14.037 10.9476 13.819 10.8365C13.5368 10.6927 13.3073 10.4632 13.1635 10.181C13.0524 9.96303 13.022 9.75504 13.0101 9.60983C12.9999 9.48451 13 9.34225 13 9.22313C13 9.21532 13 9.2076 13 9.19999V2.79999C13 2.79219 13 2.78422 13 2.77611C12.9999 2.6594 12.9999 2.51314 13.0119 2.38241C13.0266 2.22398 13.0638 2.01205 13.1845 1.79173C13.3433 1.50192 13.6099 1.2607 13.9141 1.13163C14.2841 0.974654 14.6707 1.019 14.851 1.03968Z" fill="#801ED7"/>
</svg>
